X: 20742
Q: "Moderate."
M: 6/8
L: 1/8
K: G
d/d/ |\
d2d d^cd | ed^c d2B | GGG GFG | A3 D2d |\
d2d d^cd | ed^c d2 d/e/ | fgf eB^c | d3- d2d |
eed eed | e2d d2d | ^ccc cde | d3- d2 d/d/ |\
d2B G2G | g2f He2 (g/f/) | g2B e2d | G3- G2z |
g2f Ace | e2d G2d | e2d edd | cBA G2g |\
g2f Ace | e2d G2d | efg gGA | B2A G2z |


